public/svg/groups/events.svg

<svg xmlns="http://www.w3.org/2000/svg" viewBox="0 0 24 24">
  <path d="M 5 2 L 5 4 L 4 4 C 2.895 4 2 4.895 2 6 L 2 17 C 2 18.105 2.895 19 4 19 L 11.34375 19 C 11.12175 18.374 11 17.702 11 17 L 4 17 L 4 8 L 16 8 L 16 11.09375 C 16.326 11.03875 16.659 11 17 11 C 17.341 11 17.674 11.03875 18 11.09375 L 18 6 C 18 4.895 17.105 4 16 4 L 15 4 L 15 2 L 13 2 L 13 4 L 7 4 L 7 2 L 5 2 z M 10 9.25 L 9.15625 11.21875 L 7 11.40625 L 8.625 12.84375 L 8.15625 14.9375 L 10 13.8125 L 11.84375 14.9375 L 11.375 12.84375 L 13 11.40625 L 10.84375 11.21875 L 10 9.25 z M 17 12 C 14.239 12 12 14.239 12 17 C 12 19.761 14.239 22 17 22 C 19.761 22 22 19.761 22 17 C 22 14.239 19.761 12 17 12 z M 19.125 14.0625 L 20.53125 15.46875 L 16 20 L 13 17 L 14.40625 15.59375 L 16 17.1875 L 19.125 14.0625 z"></path>
</svg>

<svg xmlns="http://www.w3.org/2000/svg" viewBox="0 0 24 24"><path d="M5 2v2H4c-1.105 0-2 .895-2 2v11c0 1.105.895 2 2 2h7.344c-.222-.626-.344-1.298-.344-2H4V8h12v3.094c.326-.055.66-.094 1-.094.34 0 .674.04 1 .094V6c0-1.105-.895-2-2-2h-1V2h-2v2H7V2H5zm5 7.25l-.844 1.97L7 11.405l1.625 1.438-.47 2.094L10 13.812l1.844 1.126-.47-2.094L13 11.406l-2.156-.187L10 9.25zM17 12c-2.76 0-5 2.24-5 5s2.24 5 5 5 5-2.24 5-5-2.24-5-5-5zm2.125 2.063l1.406 1.406L16 20l-3-3 1.406-1.406L16 17.188l3.125-3.125z"/></svg>
